frontend/public/google.svg

<svg width="48" height="48" viewBox="0 0 48 48" fill="none" xmlns="http://www.w3.org/2000/svg">
<circle cx="24" cy="24" r="20.5" fill="white" stroke="#DBDBDB"/>
<path d="M24.245 22.2544V25.9722H29.4116C29.1847 27.1679 28.5039 28.1803 27.4828 28.861L30.5984 31.2785C32.4137 29.6029 33.461 27.1418 33.461 24.2181C33.461 23.5374 33.3999 22.8828 33.2864 22.2545L24.245 22.2544Z" fill="#4285F4"/>
<path d="M18.8648 25.8271L18.1621 26.365L15.6748 28.3024C17.2545 31.4355 20.492 33.5999 24.2448 33.5999C26.8367 33.5999 29.0098 32.7446 30.5982 31.2785L27.4825 28.861C26.6273 29.437 25.5363 29.7861 24.2448 29.7861C21.7488 29.7861 19.6281 28.1018 18.8688 25.8327L18.8648 25.8271Z" fill="#34A853"/>
<path d="M15.6749 19.6974C15.0204 20.989 14.6451 22.4464 14.6451 23.9999C14.6451 25.5533 15.0203 27.0109 15.6748 28.3024C15.6748 28.3111 18.8691 25.8238 18.8691 25.8238C18.6771 25.2478 18.5636 24.6369 18.5636 23.9998C18.5636 23.3626 18.6771 22.7517 18.8691 22.1757L15.6749 19.6974Z" fill="#FBBC05"/>
<path d="M24.245 18.2224C25.6588 18.2224 26.9155 18.7112 27.9191 19.6537L30.6682 16.9047C29.0013 15.3512 26.837 14.3999 24.245 14.3999C20.4922 14.3999 17.2545 16.5555 15.6749 19.6974L18.869 22.1759C19.6282 19.9068 21.749 18.2224 24.245 18.2224Z" fill="#EA4335"/>
</svg>

<svg fill="none" viewBox="0 0 48 48"><circle cx="24" cy="24" r="20.5" fill="#fff" stroke="#dbdbdb"/><path fill="#4285f4" d="M24.245 22.254v3.718h5.167a4.43 4.43 0 0 1-1.93 2.889l3.116 2.418c1.816-1.676 2.863-4.137 2.863-7.06 0-.682-.061-1.336-.175-1.965z"/><path fill="#34a853" d="m18.865 25.827-.703.538-2.487 1.937c1.58 3.134 4.817 5.298 8.57 5.298 2.592 0 4.765-.855 6.353-2.322l-3.115-2.417c-.856.576-1.947.925-3.238.925-2.496 0-4.617-1.684-5.376-3.953z"/><path fill="#fbbc05" d="M15.675 19.697A9.5 9.5 0 0 0 14.645 24c0 1.553.375 3.01 1.03 4.302 0 .01 3.194-2.478 3.194-2.478A5.8 5.8 0 0 1 18.564 24c0-.637.113-1.248.305-1.824z"/><path fill="#ea4335" d="M24.245 18.222c1.414 0 2.67.49 3.674 1.432l2.75-2.75C29 15.352 26.836 14.4 24.244 14.4c-3.753 0-6.99 2.155-8.57 5.297l3.194 2.479c.76-2.27 2.88-3.954 5.376-3.954"/></svg>
